X:1
T:John MacKenzie
M:C|
L:1/8
Q:80
C:
S:2/4 March
K:HP
|: {g}A2{GAG}A2 | \
{gBd}B{e}A{g}B{Gdc}d | \
{gef}e2{A}e3/2f/2 |
{gef}ed{g}ef|1
{g}A2{GAG}A2 | \
{gBd}B{e}A{g}B{Gdc}d |
{g}de/2f/2{gef}ed | \
{gBd}B2{G}A2:|2
{ag}a2{AGAG}A2 |
{gBd}B{e}A{g}B{Gdc}d | \
{g}de/2f/2{gef}ed | \
{gBd}B2{G}A2|] |:
{gef}e2{g}f2 | \
{g}A{Gdc}d{gBd}B{e}A | \
{gef}e2{g}f2 |
{ag}af{gfg}f{g}e | \
{ag}a2{AGAG}A2 | \
{gBd}B{e}A{g}B{Gdc}d |
{g}de/2f/2{gef}ed | \
{gBd}B2{G}A2 :|
